X: 39324
T: Tam Lin
R: reel
M: 4/4
K: Dminor
|B,DFD B,DFD|CEGE CEGE|FAGE FEDC|
A,DFD A,DFD|B,DFD B,DFD|CEGE CEGE|FDEC D3A:|
|:d^cdA FDD2|d^cdA FDD2|cEEE cEdE|cEEE A=BcA|
d^cdA FDD2|d^cdA FDD2|B,DFD CEGE|FDEC D3:|

